Adwaita++/apps/scalable/syncthing-gtk.svg

<svg enable-background="new" height="128" viewBox="0 0 128 128" width="128" xmlns="http://www.w3.org/2000/svg">
  <g transform="translate(.000062 -173)">
    <path d="m123.99993 237a59.999995 59.999995 0 0 1 -59.999985 60 59.999995 59.999995 0 0 1 -60.0000069-60 59.999995 59.999995 0 0 1 60.0000069-59.99999 59.999995 59.999995 0 0 1 59.999985 59.99999z" fill="#deddda"/>
    <rect fill="#d5d3cf" height="114" rx="56" width="112" x="8" y="179"/>
    <path d="m123.99993 235a59.999995 59.999995 0 0 1 -59.999985 59.99999 59.999995 59.999995 0 0 1 -60.0000069-59.99999 59.999995 59.999995 0 0 1 60.0000069-60 59.999995 59.999995 0 0 1 59.999985 60z" fill="#f6f5f4"/>
    <circle cx="64" cy="235" fill="#1da6d5" r="54"/>
    <path d="m64.000045 181a54 54 0 0 0 -54 54 54 54 0 0 0 .0415 1.1709 54 54 0 0 1 53.9585-53.1709 54 54 0 0 1 53.958495 52.82813 54 54 0 0 0 .0415-.82813 54 54 0 0 0 -54.000005-54z" opacity=".1"/>
  </g>
  <path d="m63.782876 23.568751c-22.897797 0-41.510526 18.612724-41.510526 41.510524 0 .642202.01726 1.280661.04619 1.915808a8.3021046 8.3021046 0 0 0 -4.914775 7.568375 8.3021046 8.3021046 0 0 0 8.302102 8.302103 8.3021046 8.3021046 0 0 0 .562658-.02029c6.666523 14.027726 20.97105 23.744499 37.514329 23.744499 7.277451 0 14.120815-1.8821 20.072611-5.18233a8.3021046 8.3021046 0 0 0 5.340422 1.94581 8.3021046 8.3021046 0 0 0 8.302112-8.302108 8.3021046 8.3021046 0 0 0 -1.169104-4.228881c5.610165-7.079161 8.964485-16.024683 8.964485-25.743007 0-3.719151-.49409-7.32378-1.41476-10.755443a8.3021046 8.3021046 0 0 0 3.52515-6.777079 8.3021046 8.3021046 0 0 0 -8.302107-8.302105 8.3021046 8.3021046 0 0 0 -2.527923.404566c-7.599398-9.778887-19.468906-16.080442-32.790864-16.080442zm0 4.69912c11.737592 0 22.176509 5.470426 28.913054 14.004127a8.3021046 8.3021046 0 0 0 -1.896349 5.274755 8.3021046 8.3021046 0 0 0 .334026 2.31632l-15.418886 13.198239a8.3021046 8.3021046 0 0 0 -4.080521-1.077491 8.3021046 8.3021046 0 0 0 -7.974557 6.019838l-30.630228 2.663321a8.3021046 8.3021046 0 0 0 -6.032809-4.294556c-.01482-.429563-.02511-.859928-.02511-1.293149 0-20.358106 16.453293-36.811404 36.811402-36.811404zm30.144588 25.760849a8.3021046 8.3021046 0 0 0 5.174219 1.820139 8.3021046 8.3021046 0 0 0 .32674-.01135c.760917 2.952237 1.165857 6.049051 1.165857 9.241767 0 8.503639-2.872028 16.324551-7.698909 22.55108a8.3021046 8.3021046 0 0 0 -3.699462-.88129 8.3021046 8.3021046 0 0 0 -2.526301.397269l-8.303728-12.018593a8.3021046 8.3021046 0 0 0 1.570423-4.841819 8.3021046 8.3021046 0 0 0 -.819671-3.579472zm-30.131616 18.962689a8.3021046 8.3021046 0 0 0 7.838352 5.596623 8.3021046 8.3021046 0 0 0 2.739533-.475104l8.226709 11.906714a8.3021046 8.3021046 0 0 0 -1.706636 5.031521 8.3021046 8.3021046 0 0 0 .375376 2.440373c-5.199367 2.806454-11.153537 4.399144-17.486306 4.399144-14.570758 0-27.140015-8.429563-33.109509-20.685543a8.3021046 8.3021046 0 0 0 3.262467-5.616891z" opacity=".2"/>
  <path d="m63.782876 21.568751c-22.897797 0-41.510526 18.612724-41.510526 41.510524 0 .642202.01726 1.280661.04619 1.915808a8.3021046 8.3021046 0 0 0 -4.914775 7.568375 8.3021046 8.3021046 0 0 0 8.302102 8.302103 8.3021046 8.3021046 0 0 0 .562658-.02029c6.666523 14.027726 20.97105 23.744499 37.514329 23.744499 7.277451 0 14.120815-1.8821 20.072611-5.182327a8.3021046 8.3021046 0 0 0 5.340422 1.945807 8.3021046 8.3021046 0 0 0 8.302112-8.302108 8.3021046 8.3021046 0 0 0 -1.169104-4.228881c5.610165-7.079161 8.964485-16.024683 8.964485-25.743007 0-3.719151-.49409-7.32378-1.41476-10.755443a8.3021046 8.3021046 0 0 0 3.52515-6.777079 8.3021046 8.3021046 0 0 0 -8.302107-8.302105 8.3021046 8.3021046 0 0 0 -2.527923.404566c-7.599398-9.778887-19.468906-16.080442-32.790864-16.080442zm0 4.69912c11.737592 0 22.176509 5.470426 28.913054 14.004127a8.3021046 8.3021046 0 0 0 -1.896349 5.274755 8.3021046 8.3021046 0 0 0 .334026 2.31632l-15.418886 13.198239a8.3021046 8.3021046 0 0 0 -4.080521-1.077491 8.3021046 8.3021046 0 0 0 -7.974557 6.019838l-30.630228 2.663321a8.3021046 8.3021046 0 0 0 -6.032809-4.294556c-.01482-.429563-.02511-.859928-.02511-1.293149 0-20.358106 16.453293-36.811404 36.811402-36.811404zm30.144588 25.760849a8.3021046 8.3021046 0 0 0 5.174219 1.820139 8.3021046 8.3021046 0 0 0 .32674-.01135c.760917 2.952237 1.165857 6.049051 1.165857 9.241767 0 8.503639-2.872028 16.324551-7.698909 22.55108a8.3021046 8.3021046 0 0 0 -3.699462-.88129 8.3021046 8.3021046 0 0 0 -2.526301.397269l-8.303728-12.018593a8.3021046 8.3021046 0 0 0 1.570423-4.841819 8.3021046 8.3021046 0 0 0 -.819671-3.579472zm-30.131616 18.962689a8.3021046 8.3021046 0 0 0 7.838352 5.596623 8.3021046 8.3021046 0 0 0 2.739533-.475104l8.226709 11.906714a8.3021046 8.3021046 0 0 0 -1.706636 5.031521 8.3021046 8.3021046 0 0 0 .375376 2.440373c-5.199367 2.806451-11.153537 4.399142-17.486306 4.399142-14.570758 0-27.140015-8.429561-33.109509-20.685541a8.3021046 8.3021046 0 0 0 3.262467-5.616891z" fill="#fff"/>
</svg>

<svg xmlns="http://www.w3.org/2000/svg" xmlns:xlink="http://www.w3.org/1999/xlink" style="enable-background:new" width="128" height="128" version="1.0" viewBox="0 0 128 128">
 <title id="title4162">
  Adwaita Icon Template
 </title>
 <defs>
  <linearGradient id="linearGradient950">
   <stop style="stop-color:#9a9996" id="stop946" offset="0"/>
   <stop style="stop-color:#77767b" id="stop948" offset="1"/>
  </linearGradient>
  <linearGradient id="linearGradient1001" x1="1660.857" x2="1662.99" y1="806.297" y2="812.882" gradientTransform="matrix(1.8293937,-0.81599442,0.81599442,1.8293937,-3645.9624,100.02949)" gradientUnits="userSpaceOnUse" xlink:href="#linearGradient950"/>
  <clipPath id="clipPath5154" clipPathUnits="userSpaceOnUse">
   <circle cx="128" cy="924.362" r="109.647" style="fill:url(#radialGradient5158)"/>
  </clipPath>
  <clipPath id="clipPath977" clipPathUnits="userSpaceOnUse">
   <circle cx="128" cy="924.362" r="109.647" style="fill:url(#radialGradient5158)"/>
  </clipPath>
  <clipPath id="clipPath4688" clipPathUnits="userSpaceOnUse">
   <path d="m 106.42383,889.60156 c -2.2448,-0.0524 -4.09304,1.75264 -4.09375,3.99805 v 32.64453 32.64453 c -4e-5,3.07923 3.33305,5.004 6,3.46485 l 28.26953,-16.32227 28.27148,-16.32227 c 2.66559,-1.54001 2.66559,-5.38772 0,-6.92773 l -28.27148,-16.32227 -28.26953,-16.32226 c -0.58054,-0.3353 -1.23603,-0.51932 -1.90625,-0.53516 z" style="fill:url(#radialGradient4692);stroke:#a7003f;stroke-linecap:round;stroke-linejoin:round"/>
  </clipPath>
  <clipPath id="clipPath4564" clipPathUnits="userSpaceOnUse">
   <circle style="fill:url(#radialGradient4568)" cx="128" cy="924.362" r="109.647"/>
  </clipPath>
  <clipPath id="clipPath6215" clipPathUnits="userSpaceOnUse">
   <path d="m 105.17325,806.18572 c -3.06859,0.56361 -6.11393,1.24721 -9.129005,2.04923 -3.838255,1.06506 -7.62084,2.32142 -11.333578,3.76438 -3.712189,1.44307 -7.34989,3.07087 -10.899472,4.87732 -3.549153,1.80656 -7.005749,3.78947 -10.35684,5.94129 -3.351877,2.15253 -6.593991,4.47137 -9.714191,6.94783 -3.119992,2.47544 -6.114241,5.10535 -8.971529,7.87988 -0.367219,0.38909 -0.731819,0.78065 -1.093777,1.17464 2.60205,17.85956 16.832359,40.03752 30.863064,55.74236 -4.76734,8.84435 -7.265993,18.73329 -7.272057,28.78068 0.02104,2.87431 0.246096,5.7435 0.673482,8.58593 -20.257302,-9.18513 -43.077023,-26.53494 -52.798465,-47.36396 -0.440667,1.15171 -0.863474,2.31018 -1.268271,3.47498 -1.176789,3.80495 -2.162562,7.66637 -2.953625,11.56979 -0.79154,3.90311 -1.3874065,7.84335 -1.7853678,11.80598 -0.39733,3.96334 -0.5961891,7.94407 -0.5958321,11.92728 -4.394e-4,2.81936 0.098928,5.63785 0.2979155,8.45018 0.282275,3.97319 0.763088,7.92978 1.4406374,11.85493 0.625626,3.51826 1.408798,7.00668 2.347153,10.45473 16.778133,6.68355 43.114514,5.45001 63.748015,1.14301 6.818545,11.02763 16.987182,19.58379 29.018153,24.41667 -18.071844,12.93645 -44.490188,24.02095 -67.37308,22.03245 1.384097,1.665 2.813203,3.2921 4.285735,4.8794 2.774977,2.8571 5.691103,5.5737 8.737453,8.1395 3.046107,2.5658 6.218619,4.9777 9.505651,7.2266 3.287242,2.2488 6.684891,4.3319 10.180217,6.2413 3.495379,1.9096 7.084075,3.6433 10.752641,5.1944 3.66896,1.5509 7.413193,2.9174 11.218668,4.0942 1.438565,0.3959 2.884421,0.7648 4.336807,1.1066 14.138748,-11.1844 26.206378,-34.5828 32.780368,-54.56406 12.95816,-0.38251 25.45395,-4.90132 35.65955,-12.89544 2.15922,22.12638 -1.46693,50.5581 -14.64692,69.3832 3.06859,-0.5636 6.11393,-1.2473 9.129,-2.0493 3.83826,-1.0651 7.62084,-2.3214 11.33358,-3.7644 3.71219,-1.4431 7.34989,-3.0709 10.89947,-4.8773 3.54915,-1.8066 7.00575,-3.7895 10.35684,-5.9413 3.35188,-2.1525 6.59399,-4.4714 9.71419,-6.9478 3.11999,-2.4754 6.11424,-5.1054 8.97153,-7.8799 0.36722,-0.3891 0.73182,-0.7806 1.09378,-1.1746 -2.60204,-17.85957 -16.83236,-40.03755 -30.86307,-55.74238 4.76735,-8.84435 7.266,-18.7333 7.27207,-28.78069 -0.021,-2.8743 -0.24611,-5.74349 -0.6735,-8.58592 20.25731,9.18513 43.07704,26.53494 52.79848,47.36396 0.44067,-1.15171 0.86347,-2.31018 1.26827,-3.47499 1.17679,-3.80495 2.16256,-7.66636 2.95362,-11.56978 0.79154,-3.90311 1.38741,-7.84335 1.78537,-11.80598 0.39733,-3.96334 0.59619,-7.94408 0.59583,-11.92729 4.4e-4,-2.81936 -0.0989,-5.63784 -0.29791,-8.45017 -0.28228,-3.97319 -0.76309,-7.92978 -1.44064,-11.85493 -0.62776,-3.53416 -1.41449,-7.03823 -2.35779,-10.50154 -20.56165,-7.32804 -45.89823,-4.79548 -63.74906,-1.11372 -6.81835,-11.01918 -16.98234,-19.56874 -29.00647,-24.39915 18.07184,-12.93645 44.49019,-24.02091 67.37307,-22.03241 -1.38409,-1.66502 -2.8132,-3.2921 -4.28573,-4.87944 -2.77498,-2.85712 -5.6911,-5.57368 -8.73745,-8.13949 -3.04611,-2.56581 -6.21862,-4.97769 -9.50565,-7.22659 -3.28724,-2.24885 -6.68489,-4.3319 -10.18022,-6.24135 -3.49538,-1.90963 -7.08407,-3.64325 -10.75264,-5.19438 -3.66896,-1.55092 -7.41319,-2.91736 -11.21867,-4.09421 -1.42662,-0.39262 -2.86041,-0.75869 -4.30063,-1.09804 -14.14688,11.18369 -26.2293,34.57475 -32.8107,54.55552 -12.96018,0.38127 -25.4582,4.90015 -35.665394,12.89544 -2.15922,-22.12637 1.466931,-50.55807 14.646924,-69.38315 z" style="fill:url(#radialGradient6219)"/>
  </clipPath>
 </defs>
 <g id="layer1" transform="translate(6.19e-5,-173)">
  <g id="layer9">
   <path d="M 123.99993,237 A 59.999995,59.999995 0 0 1 63.999945,297 59.999995,59.999995 0 0 1 3.9999381,237 59.999995,59.999995 0 0 1 63.999945,177.00001 59.999995,59.999995 0 0 1 123.99993,237 Z" style="fill:#deddda"/>
   <rect style="fill:#d5d3cf" width="112" height="114" x="8" y="179" rx="56" ry="56"/>
   <path style="fill:#f6f5f4" d="M 123.99993,235 A 59.999995,59.999995 0 0 1 63.999945,294.99999 59.999995,59.999995 0 0 1 3.9999381,235 59.999995,59.999995 0 0 1 63.999945,175 59.999995,59.999995 0 0 1 123.99993,235 Z"/>
   <circle style="fill:#1da6d5" cx="64" cy="235" r="54"/>
   <path d="m 64.000045,181 a 54,54 0 0 0 -54,54 54,54 0 0 0 0.0415,1.1709 A 54,54 0 0 1 64.000045,183 54,54 0 0 1 117.95854,235.82813 54,54 0 0 0 118.00004,235 54,54 0 0 0 64.000035,181 Z" style="opacity:0.1"/>
  </g>
 </g>
 <path d="m 63.782876,23.568751 c -22.897797,0 -41.510526,18.612724 -41.510526,41.510524 0,0.642202 0.01726,1.280661 0.04619,1.915808 a 8.3021046,8.3021046 0 0 0 -4.914775,7.568375 8.3021046,8.3021046 0 0 0 8.302102,8.302103 8.3021046,8.3021046 0 0 0 0.562658,-0.02029 c 6.666523,14.027726 20.97105,23.744499 37.514329,23.744499 7.277451,0 14.120815,-1.8821 20.072611,-5.18233 a 8.3021046,8.3021046 0 0 0 5.340422,1.94581 8.3021046,8.3021046 0 0 0 8.302112,-8.302108 8.3021046,8.3021046 0 0 0 -1.169104,-4.228881 c 5.610165,-7.079161 8.964485,-16.024683 8.964485,-25.743007 0,-3.719151 -0.49409,-7.32378 -1.41476,-10.755443 a 8.3021046,8.3021046 0 0 0 3.52515,-6.777079 8.3021046,8.3021046 0 0 0 -8.302107,-8.302105 8.3021046,8.3021046 0 0 0 -2.527923,0.404566 C 88.974342,29.870306 77.104834,23.568751 63.782876,23.568751 Z m 0,4.69912 c 11.737592,0 22.176509,5.470426 28.913054,14.004127 a 8.3021046,8.3021046 0 0 0 -1.896349,5.274755 8.3021046,8.3021046 0 0 0 0.334026,2.31632 L 75.714721,63.061312 A 8.3021046,8.3021046 0 0 0 71.6342,61.983821 8.3021046,8.3021046 0 0 0 63.659643,68.003659 L 33.029415,70.66698 a 8.3021046,8.3021046 0 0 0 -6.032809,-4.294556 c -0.01482,-0.429563 -0.02511,-0.859928 -0.02511,-1.293149 0,-20.358106 16.453293,-36.811404 36.811402,-36.811404 z M 93.927464,54.02872 a 8.3021046,8.3021046 0 0 0 5.174219,1.820139 8.3021046,8.3021046 0 0 0 0.32674,-0.01135 c 0.760917,2.952237 1.165857,6.049051 1.165857,9.241767 0,8.503639 -2.872028,16.324551 -7.698909,22.55108 a 8.3021046,8.3021046 0 0 0 -3.699462,-0.88129 8.3021046,8.3021046 0 0 0 -2.526301,0.397269 L 78.36588,75.127742 a 8.3021046,8.3021046 0 0 0 1.570423,-4.841819 8.3021046,8.3021046 0 0 0 -0.819671,-3.579472 z M 63.795848,72.991409 a 8.3021046,8.3021046 0 0 0 7.838352,5.596623 8.3021046,8.3021046 0 0 0 2.739533,-0.475104 l 8.226709,11.906714 a 8.3021046,8.3021046 0 0 0 -1.706636,5.031521 8.3021046,8.3021046 0 0 0 0.375376,2.440373 c -5.199367,2.806454 -11.153537,4.399144 -17.486306,4.399144 -14.570758,0 -27.140015,-8.429563 -33.109509,-20.685543 a 8.3021046,8.3021046 0 0 0 3.262467,-5.616891 z" style="opacity:0.2"/>
 <path style="fill:#ffffff" d="m 63.782876,21.568751 c -22.897797,0 -41.510526,18.612724 -41.510526,41.510524 0,0.642202 0.01726,1.280661 0.04619,1.915808 a 8.3021046,8.3021046 0 0 0 -4.914775,7.568375 8.3021046,8.3021046 0 0 0 8.302102,8.302103 8.3021046,8.3021046 0 0 0 0.562658,-0.02029 c 6.666523,14.027726 20.97105,23.744499 37.514329,23.744499 7.277451,0 14.120815,-1.8821 20.072611,-5.182327 a 8.3021046,8.3021046 0 0 0 5.340422,1.945807 8.3021046,8.3021046 0 0 0 8.302112,-8.302108 8.3021046,8.3021046 0 0 0 -1.169104,-4.228881 c 5.610165,-7.079161 8.964485,-16.024683 8.964485,-25.743007 0,-3.719151 -0.49409,-7.32378 -1.41476,-10.755443 a 8.3021046,8.3021046 0 0 0 3.52515,-6.777079 8.3021046,8.3021046 0 0 0 -8.302107,-8.302105 8.3021046,8.3021046 0 0 0 -2.527923,0.404566 C 88.974342,27.870306 77.104834,21.568751 63.782876,21.568751 Z m 0,4.69912 c 11.737592,0 22.176509,5.470426 28.913054,14.004127 a 8.3021046,8.3021046 0 0 0 -1.896349,5.274755 8.3021046,8.3021046 0 0 0 0.334026,2.31632 L 75.714721,61.061312 A 8.3021046,8.3021046 0 0 0 71.6342,59.983821 8.3021046,8.3021046 0 0 0 63.659643,66.003659 L 33.029415,68.66698 a 8.3021046,8.3021046 0 0 0 -6.032809,-4.294556 c -0.01482,-0.429563 -0.02511,-0.859928 -0.02511,-1.293149 0,-20.358106 16.453293,-36.811404 36.811402,-36.811404 z M 93.927464,52.02872 a 8.3021046,8.3021046 0 0 0 5.174219,1.820139 8.3021046,8.3021046 0 0 0 0.32674,-0.01135 c 0.760917,2.952237 1.165857,6.049051 1.165857,9.241767 0,8.503639 -2.872028,16.324551 -7.698909,22.55108 a 8.3021046,8.3021046 0 0 0 -3.699462,-0.88129 8.3021046,8.3021046 0 0 0 -2.526301,0.397269 L 78.36588,73.127742 a 8.3021046,8.3021046 0 0 0 1.570423,-4.841819 8.3021046,8.3021046 0 0 0 -0.819671,-3.579472 z M 63.795848,70.991409 a 8.3021046,8.3021046 0 0 0 7.838352,5.596623 8.3021046,8.3021046 0 0 0 2.739533,-0.475104 l 8.226709,11.906714 a 8.3021046,8.3021046 0 0 0 -1.706636,5.031521 8.3021046,8.3021046 0 0 0 0.375376,2.440373 c -5.199367,2.806451 -11.153537,4.399142 -17.486306,4.399142 -14.570758,0 -27.140015,-8.429561 -33.109509,-20.685541 a 8.3021046,8.3021046 0 0 0 3.262467,-5.616891 z"/>
</svg>
